icons/equalizer-fill.svg

<svg viewBox="0 0 24 24" fill="currentColor" xmlns="http://www.w3.org/2000/svg"><path d="M6.17071 18C6.58254 16.8348 7.69378 16 9 16C10.3062 16 11.4175 16.8348 11.8293 18H22V20H11.8293C11.4175 21.1652 10.3062 22 9 22C7.69378 22 6.58254 21.1652 6.17071 20H2V18H6.17071ZM12.1707 11C12.5825 9.83481 13.6938 9 15 9C16.3062 9 17.4175 9.83481 17.8293 11H22V13H17.8293C17.4175 14.1652 16.3062 15 15 15C13.6938 15 12.5825 14.1652 12.1707 13H2V11H12.1707ZM6.17071 4C6.58254 2.83481 7.69378 2 9 2C10.3062 2 11.4175 2.83481 11.8293 4H22V6H11.8293C11.4175 7.16519 10.3062 8 9 8C7.69378 8 6.58254 7.16519 6.17071 6H2V4H6.17071Z"/></svg>

<svg xmlns="http://www.w3.org/2000/svg" viewBox="0 0 24 24">
    <g>
        <path fill="none" d="M0 0h24v24H0z"/>
        <path d="M6.17 18a3.001 3.001 0 0 1 5.66 0H22v2H11.83a3.001 3.001 0 0 1-5.66 0H2v-2h4.17zm6-7a3.001 3.001 0 0 1 5.66 0H22v2h-4.17a3.001 3.001 0 0 1-5.66 0H2v-2h10.17zm-6-7a3.001 3.001 0 0 1 5.66 0H22v2H11.83a3.001 3.001 0 0 1-5.66 0H2V4h4.17z"/>
    </g>
</svg>
